X: 2165
Q: "Strathspey."
M: C
L: 1/16
K: D
uA,2 |\
vDDD2 uF3uD vCE3E3uF | DDD2 uF3uD vA3vDuF3uD |\
(ufg) |\
agfe d3uf gb3e2(fg) | a3fg3e f3de3c |
dcBA vd3uD vCE3E3uF | DDD2 (f3e) dD3D2 ::\
(uBc) |\
dcBA vd3uD CE3E2 (Bc) | dcBA BAGF GABc dAFA |\
efge fgaf veE3E3uF |
(fg) |\
agfe defd gabg efge | afge fdec dBcA BGAG |\


